X: 2311
M: 6/8
L: 1/8
K: G
|:\
vBcB BAG | Bcd ue2ud | BcB BAG | A3 (d2c) |\
|:\
g2d e2d | dgd e2d | ege dBG | A3 (d2c) |\


